X:036
T:Sylph,The. TS.036
T:Plymouth Lasses,aka TS.036
T:Hark to the Wittendale Hunt,aka TS.036
M:6/8
L:1/8
Q:3/8=120
S:Thomas Sands’ MS,1810,Lincolnshire
R:jig
N:John Abraham Fisher wrote the stage production
N:’The Sylph’ as a work for the Covent Garden theatre in the 1770’s
C:Prefixed as ‘No.24′ in MS
O:England;Lincolnshire
Z:vmp.Ruairidh Greig, 2011
K:D
A|AFA dfa|agf e2g|faf fed|ceee2A|
AFA dfa|agfe2g|fad egc|eddd2:|
|:A|FAd dcB|BAGF2D|FAD FAD|C>DE A,>A,A|
FAd dcB|BAG F2D|FAD AGC|EDDD2:|]

